X:1
T:heavenly manna
T:Panis Angelicus
T:for Flute and Cello
T:César Franck (1822-1890)
C:cesar franck 1822-1890
Z:frank la forge
%%score 1 2 { ( 3 6 ) | ( 4 5 ) }
L:1/8
Q:1/4=70
M:4/4
K:A
V:1 treble nm="Flute" snm="Fl."
V:2 bass nm="Cello" snm="Vc."
V:3 treble nm="Harp" snm="Hrp."
V:6 treble 
V:4 bass 
V:5 bass 
V:1
 z8 | z8 | z8 | z8 | z8 | z8 | z8 | z8 | z8 | z8 | z8 | z8 | c4 c2 B2 | (B>A) A2 z4 | c4 c2 B2 | %15
w: ||||||||||||pa nis an|ge li cus|fit pa nis|
 (B>A) A2 z4 | f4 f2 e2 | d3 d !breath!d2 c2 | B3 B B2 A2 |!>(! e8!>)! | c4 c2 B2 | (B>A) A2 z4 | %22
w: ho mi num|dat pa nis|coe li cus fi|gu ris ter mi|num|o res mi|ra bi lis|
!<(! e4 e2!<)! ^d2 | (^d>c) c2 z4 | c4 B2 z2 |!<(! e4 B2!<)! z2 |!f! f2 AB c3 A | G4 z4 | %28
w: man du cat|do mi num|pau per|pau per|ser vus et hu mi|lis|
 c4 G2 z2 |!<(! (=d3 B) A2!<)! z2 | ^d2 ef!>(! c3 d | e4!>)! z4 | z8 | z8 | z8 | z8 | %36
w: pau per|pau per *|ser vus et hu mi|lis|||||
!mf! c4 c2 B2 | (B>A) A2 z4 | c4 c2 B2 | (B>A) A2 z4 | f4 f2 e2 | d3 d d2 c2 | B3 B B2 A2 | e4 z4 | %44
w: pa nis an|ge li cus|fit pa nis|ho mi num|dat pa nis|coe li cus fi|gu ris ter mi|num|
!<(! e4 d2 c2!<)! |!>(! (c>B) B2 z4!>)! | e4!<(! f2 d2!<)! |!>(! (c>B) B2 z4!>)! | %48
w: o res mi|rabilis * *|man du cat|do mi num|
!f!!<(! ((e4 e)c)(BA)!<)! | (d3 B) c2 (c2 | c2) BA B3 c | A4 z4 |!f! ((f4 f)d)(cB) | e3 c d2 (d2 | %54
w: pau per * * *|pau per, ser *|* vus et hu mi|lis|pau * * per *|pau * per ser|
 d2)!<(! Bd c2 B!<)!A | (B4!>(! B3) A | A4!>)! z4 | z8 | z8 | z8 | z8 |] %61
w: * vus ser vus et *|hu mi *|lis|||||
V:2
 (C,8 | C,2) F,4 (F,2 | F,8) | (E,8 | (E,8) | (((E,8) | (E,8))) | (G,2) A,2 B,4-) | ((B,4 A,4)) | %9
 ((A,4 D,4)) | C,8 | D,4 C,2 z2 | z8 | z8 | z8 | z8 | z8 | z8 | z8 | z8 | E,4 G,4 | A,4 C4 | %22
 C4 ^B,4 | (C8 | C4) B,4 | E4 B,4 |!f! A,8 | (G,8 | G,4) C4 |!<(! B,4 (A,4!<)! | A,4) A,4 | %31
 G,4!<)!!<(! z4 |!mf! (^D,2 E,F, C,2 D,2 | E,2 F,G, ^D,2 E,2 |!<(! F,2 G,A,!<)!!>(! G,2 F,2!>)! | %35
 E,6 =D,2) | z8 | C4 (C2 B,2) | ((!tenuto!B,>!tenuto!A,)) A,6 | C4 (C2 B,2) | %40
 (!tenuto!B,>!tenuto!A,) A,6 | F4 F2 E2 | D3 D D2 C2 | B,3 B, B,2 A,2 | E2 z2 z4 | (E4 D2 C2 | %46
 C>B, !tenuto!B,2) z4 | (E4 F2 D2 | C>B, !tenuto!B,2) z4 | ((E4 E)CB,A,) | C2 B,A, B,3 C | %51
 (A,!<(!G,A,C E^DE^E)!<)! | ((F4 F)DCB,) | E3 C D2 D2- | D2 (B,D C2) (B,A, | (G,4) D,3) C, | %56
 C,2 C,2 E,2 D,2 | D,2 B,,D, C,2 B,,A,, | B,,8 | A,,4 z4 | z8 |] %61
V:3
 (A4 A2 G2 | G>F) (F4 (f2) | e2 dc B2 c2) | (A4 G)(^cdB) | (A2 GF E2 A2) | ((B4 B)cdB) | %6
 (A2 GF E2 Ac | (B4 B-))(efd | c4- c)(cec | (B4 B))(cdF) | (A2 GF E2 Ac | B3 A A2) z2 | CECE DEDE | %13
 CECE z ECE | CECE DEDE | CECE z ECE | z AFA FAEA | z ADA DACA | z EB,E B,EA,E | F2 D6 | %20
 CA,CA, DEDE | CECE z ECE | z EGE z FGF | z E^AE AE=AE | z DAD z DAD | z EGE z EGE | %26
!f! z A,^DA, FA,DA, | z G,DG, FG,DG, | z G,CG, z CEC |!<(! z B,=DB, z A,CA,!<)! | z B,^DB, CA,DB, | %31
 z B,EB, EGBe |!mf! ^d2 ef c2 d2 | e2 fg ^d2 e2 |!<(! f2 ga!<)!!>(! g2 f2!>)! | (F2 A2 ^A2 B2) | %36
 =AECE z EDE | z ECE z EDE | z ECE z EDE | z!<(! ECE!<)! z =GCG | z FDF z F z E | %41
 z AFA z [FA] z [EA] | z FDF z F z F | z EDF z ECE | z GDG z FDF | z GDG z FDF | z GDG z FDF | %47
 z GDG z FDF | z GEG z AEA | z BEB z AEA | D4 z EDE | (A!<(!GAc e^de^e)!<)! | z (^AFA B2) F2 | %53
 z FEF z FDG | E8 | E4 D3 C |[K:bass] C2 C2 E2 D2 | D2 B,D C2 B,A, | B,8 | %59
[K:treble] z2 [CEA]2 [EAc]2 [Ace]2 | [cea]2 z2 z4 |] %61
V:4
 (E,4 ^E,4 | F,8) | (F,6 =A,2) | (C4 B,4) | [A,C]2 [B,D]2 [CE]2 [A,C]2 | %5
 [G,B,]2 [E,G,]2 [F,A,]2 [G,B,]2 | [A,C]2 [B,D]2 C2 A,2 | D8 | C8 | B,4 D,4 | (A,8 | %11
 [E,G,]4 [A,,A,]2) z2 | (E,8 | (E,8) | (E,8) | E,4) A,4 | (D6 C2) | A,8 | G,6 (E,2 | %19
 [E,G,])E,B,E, A,E,G,E, | (E,8 | E,8) | G,8 | =G,8 | =A,8 | G,8 | F,8 | F,8 | E,8 | ^E,4 (F,4 | %30
 F,4) E,2 F,2 | (E,4 E,) z z2 | F4 E2 F2 | E2 B,6 | z2 D2 C2 D2 | =D2 C4 E2 | %36
 [=A,,E,-=A,]4 [E,G,]4 | [A,,E,-A,]4 [E,G,]4 | [A,,E,A,]4 [E,G,]4 | [A,,E,]8 | A,8 | A,8 | %42
 [A,B,]6 [A,C]2 | (G,4 A,4) | (B,4 A,4) | (B,4 A,4) | (B,4 A,4) | (B,4 A,4) | B,4 A,4 | %49
!f! ((B,4 C4)) | (F,4 G,4 | A,4) [A,C]4 |!f! [^A,C]4 B,4 | [A,C]4 B,4 | G,4 A,4 | G,2 z2 z4 | %56
!>(! (A,4!>)! G,2 F,2 | =F,2 E,2 A,,2 C,2 | D,4 E,4) | A,,2!>(! (A,6 | A,2)!>)! z2 z4 |] %61
V:5
 A,,8 | (A,,4 ^A,,4 | B,,3 C, D,2 ^D,2) | (E,8 | (E,8) | (E,8) | (E,8) | E,8) | (^E,4 F,2) C,2 | %9
 (D,4 B,,4 | E,8) | x8 | (A,,4 E,4) | (A,,4 E,4) | (A,,4 E,4) | (A,,4 E,4) | A,8 | (F,6 E,2) | %18
 D,6 C,2 | B,,2 G,,2 F,,2 E,,2 | A,,4 E,4 | A,,8 | G,,8 | ^A,8 | F,8 | E,8 | B,,8 | ^B,,8 | C,8 | %29
 C,4 F,,4 | B,,8 | x8 | (B,6 G,2 | G,4 F,2 E,2) | B,8 | B,2 A,2 ^^F,2 G,2 | x8 | x8 | x8 | x8 | %40
 D,4 D,2 C,2 | B,,6 C,2 | D,6 ^D,2 | (E,8 | (E,8) | (E,8) | (E,8) | E,8) | D,4 C,4 | (G,4 A,4) | %50
 E,8 | A,,4 (E,4 | E,4) D,4 | x8 | x8 | x8 | x8 | x8 | x8 | x8 | x8 |] %61
V:6
 x8 | x8 | x8 | x8 | x8 | x8 | x8 | x8 | x8 | x8 | x8 | x8 | x8 | x8 | x8 | x8 | x8 | x8 | x8 | %19
 x8 | x8 | x8 | x8 | x8 | x8 | x8 | x8 | x8 | x8 | x8 | x8 | x8 | x8 | x8 | x8 | x8 | x8 | x8 | %38
 x8 | x8 | x8 | x8 | x8 | x8 | x8 | x8 | x8 | x8 | x8 | x8 | x8 | C4 A4 | x8 | x8 | x8 | x8 | %56
[K:bass] A,2 A,2 A,4 | G,4 ((A,4 | A,4) G,4) |[K:treble] x8 | x8 |] %61

